X: 196
T: Dundee Cat
M:4/4
R:song
L:1/8
Z:Alf Warnock - alf0@rogers.com
K:D
FG|"D"A2f2 f3A|"A7"G2e2 e3e|"Em"a2g2 "A7"B2c2|"D"d2B2 A3F|
"D"A2f2 f3A|"A7"G2e2 e3f|a2g2 B2c2|"D"e2d2 d2AA|
"A7"f2e6|f2e4-eB|"E7"e2e2 e2B2|"A7"d2c2 HA4|
f4 e4| "D"d2"lick"AA BAFE|D8|]

